brandFactory_export/1.Light/Mapa plano_1light.svg

<?xml version="1.0" encoding="UTF-8"?>
<svg width="24px" height="24px" viewBox="0 0 24 24" version="1.1" xmlns="http://www.w3.org/2000/svg" xmlns:xlink="http://www.w3.org/1999/xlink">
    <title>1.Light/Mapa plano_1light</title>
    <g id="Symbols" stroke="none" stroke-width="1" fill="none" fill-rule="evenodd">
        <g id="1.Light/Mapa-plano_1light" fill="#5CB615" fill-rule="nonzero">
            <path d="M22.6386555,21.6470588 L18.1243697,20.9042017 L18.1243697,1.07226891 L22.6386555,1.81512605 L22.6386555,21.6470588 Z M0.98487395,1.81848739 L5.73445378,1.06890756 L5.73445378,20.9008403 L0.98487395,21.6504202 L0.98487395,1.81848739 Z M12.302521,2.66554622 L17.1394958,1.15966387 L17.1394958,20.9579832 L12.302521,22.4605042 L12.302521,2.66554622 Z M6.71932773,1.1697479 L11.3210084,2.66218487 L11.3210084,22.4537815 L6.71932773,20.9613445 L6.71932773,1.1697479 Z M23.210084,0.91092437 L17.7109244,0.00672268908 C17.697479,0.00336134454 17.687395,0.0100840336 17.6773109,0.0100840336 C17.6605042,0.0100840336 17.6504202,0 17.6336134,0 C17.6,0 17.5731092,0.0134453782 17.5428571,0.0168067227 C17.5260504,0.0201680672 17.5058824,0.0134453782 17.4890756,0.0201680672 L11.8151261,1.78487395 L6.37647059,0.0235294118 C6.35966387,0.0168067227 6.3394958,0.0235294118 6.32268908,0.0201680672 C6.28907563,0.0134453782 6.25882353,0 6.22521008,0 C6.21176471,0 6.19831933,0.00672268908 6.18151261,0.0100840336 C6.17142857,0.0100840336 6.15798319,0.00672268908 6.14789916,0.00672268908 L0.416806723,0.91092437 C0.174789916,0.94789916 0,1.15630252 0,1.39831933 L0,22.2252101 C0,22.497479 0.221848739,22.7159664 0.490756303,22.7159664 C0.517647059,22.7159664 0.541176471,22.712605 0.568067227,22.7092437 L6.18487395,21.8252101 L11.6571429,23.5966387 C11.7546218,23.6302521 11.8588235,23.6302521 11.9529412,23.6 L17.6638655,21.8252101 L23.0487395,22.712605 C23.3142857,22.7563025 23.5697479,22.5781513 23.6134454,22.312605 C23.6168067,22.2857143 23.6202157,22.2554622 23.6202157,22.2285714 L23.6202157,1.39831933 C23.6235294,1.15630252 23.4487395,0.951260504 23.210084,0.91092437 Z" id="Mapa-plano_1light"></path>
        </g>
    </g>
</svg>

<svg width="24" height="24" viewBox="0 0 24 24" xmlns="http://www.w3.org/2000/svg"><path d="M22.639 21.647l-4.515-.743V1.072l4.515.743v19.832zM.985 1.818l4.75-.75v19.833l-4.75.75V1.817zm11.318.848l4.836-1.506v19.798l-4.836 1.503V2.666zM6.719 1.17l4.602 1.492v19.792L6.719 20.96V1.17zM23.21.91l-5.5-.903c-.013-.004-.023.003-.033.003-.016 0-.027-.01-.043-.01-.034 0-.06.013-.091.017-.017.003-.037-.004-.054.003l-5.674 1.765L6.376.024C6.36.017 6.34.024 6.323.02 6.289.013 6.259 0 6.225 0c-.013 0-.027.007-.043.01L6.148.007.417.91A.492.492 0 000 1.398v20.827c0 .272.222.491.49.491.028 0 .051-.003.078-.007l5.617-.884 5.472 1.772a.469.469 0 00.296.003l5.71-1.775 5.386.888a.49.49 0 00.571-.484V1.399a.488.488 0 00-.41-.488z" fill="#5CB615" fill-rule="nonzero"/></svg>
